public/icons/ReDesigner.svg

<?xml version="1.0" encoding="UTF-8"?>
<svg width="33px" height="37px" viewBox="0 0 33 37" version="1.1" xmlns="http://www.w3.org/2000/svg" xmlns:xlink="http://www.w3.org/1999/xlink">
    <!-- Generator: Sketch 53 (72520) - https://sketchapp.com -->
    <title>Group2</title>
    <desc>Created with Sketch.</desc>
    <g id="Symbols" stroke="none" stroke-width="1" fill="none" fill-rule="evenodd">
        <g id="header" transform="translate(-20.000000, -13.000000)">
            <g id="Group">
                <g id="Header">
                    <g id="Group2" transform="translate(20.000000, 13.000000)">
                        <path d="M3.82337243,9.28715616 L23.6553586,0.506630735 C26.8172204,-0.893269761 30.4437423,0.707477026 31.755422,4.08199875 C32.1797867,5.17374992 32.322316,6.36691095 32.1681846,7.5373747 L29.1339299,30.579305 C28.6575211,34.1971215 25.5233201,36.7177603 22.1334959,36.2093093 C21.0378279,36.0449664 20.0033526,35.5706011 19.1374756,34.8354648 L2.33974413,20.5740599 C-0.339142799,18.299664 -0.783240191,14.1381733 1.34782484,11.2791102 C2.00157421,10.402032 2.85340433,9.71660531 3.82337243,9.28715616 Z" id="Path2" fill="#FA6400"></path>
                        <path d="M18.3904382,20.2457885 C18.262317,19.8118926 18.1971679,19.3496187 18.1971679,18.8702279 C18.1971679,16.3022715 20.1800867,14.2785178 22.9528121,14.2785178 C25.3390364,14.2785178 27.6244344,15.9451385 27.6244344,19.4144306 L20.6842186,19.4144306 C20.7346318,20.5028359 21.7260912,21.3021336 23.3225088,21.3021336 C24.2131419,21.3021336 25.1037749,20.8429626 25.7087332,20.2647472 L27.1539113,21.6592666 C25.9271903,23.0197733 24.2971639,23.3769063 23.1376605,23.3769063 C21.5490083,23.3769063 20.3181444,22.875878 19.4823293,22.0665542 C18.5649567,22.8370708 17.5659339,23.3769063 16.3724746,23.3769063 C13.5829448,23.3769063 12.7259205,20.2137282 12.5914854,18.9552596 L11.0286765,18.9552596 L11.0286765,23.1898366 L8.4407994,23.1898366 L8.4407994,11.2854031 L13.6669668,11.2854031 C16.0867999,11.2854031 17.4143472,13.1050808 17.4143472,15.1968598 C17.4143472,16.8804868 16.473301,18.2750062 14.9272965,18.7681899 C15.2297756,20.0266586 15.7002987,21.0470386 16.8766065,21.0470386 C17.2618125,21.0470386 17.9659423,20.7260189 18.3904382,20.2457885 Z M11.0286765,16.8464742 L13.3308788,16.8464742 C14.2551206,16.8464742 14.8096657,16.1662208 14.8096657,15.1798535 C14.8096657,14.1764798 14.2551206,13.4962264 13.3308788,13.4962264 L11.0286765,13.4962264 L11.0286765,16.8464742 Z M22.9192033,16.3362842 C22.1125923,16.3362842 21.0371109,16.7104235 20.7346318,17.8838605 L25.0533617,17.8838605 C24.8853177,16.7614425 23.7594232,16.3362842 22.9192033,16.3362842 Z" id="Re" fill="#FFFFFF"></path>
                    </g>
                </g>
            </g>
        </g>
    </g>
</svg>

<svg xmlns="http://www.w3.org/2000/svg" width="33" height="37" fill-rule="evenodd" xmlns:v="https://vecta.io/nano"><path d="M3.823 9.287L23.655.507c3.162-1.4 6.788.201 8.1 3.575.424 1.092.567 2.285.413 3.455l-3.034 23.042c-.476 3.618-3.611 6.138-7 5.63-1.096-.164-2.13-.639-2.996-1.374L2.34 20.574c-2.679-2.274-3.123-6.436-.992-9.295.654-.877 1.506-1.563 2.476-1.992z" fill="#fa6400"/><path d="M18.39 20.246c-.128-.434-.193-.896-.193-1.376 0-2.568 1.983-4.592 4.756-4.592 2.386 0 4.672 1.667 4.672 5.136h-6.94c.05 1.088 1.042 1.888 2.638 1.888.891 0 1.781-.459 2.386-1.037l1.445 1.395c-1.227 1.361-2.857 1.718-4.016 1.718-1.589 0-2.82-.501-3.655-1.31-.917.771-1.916 1.31-3.11 1.31-2.79 0-3.647-3.163-3.781-4.422h-1.563v4.235H8.441V11.285h5.226c2.42 0 3.747 1.82 3.747 3.911 0 1.684-.941 3.078-2.487 3.571.302 1.258.773 2.279 1.949 2.279.385 0 1.089-.321 1.514-.801zm-7.362-3.399h2.302c.924 0 1.479-.68 1.479-1.667 0-1.003-.555-1.684-1.479-1.684h-2.302v3.35zm11.891-.51c-.807 0-1.882.374-2.185 1.548h4.319c-.168-1.122-1.294-1.548-2.134-1.548z" fill="#fff"/></svg>
